SVG/graduation-cap.svg

<?xml version="1.0" encoding="utf-8"?>
<!-- Generated by IcoMoon.io -->
<!DOCTYPE svg PUBLIC "-//W3C//DTD SVG 1.1//EN" "http://www.w3.org/Graphics/SVG/1.1/DTD/svg11.dtd">
<svg version="1.1" xmlns="http://www.w3.org/2000/svg" xmlns:xlink="http://www.w3.org/1999/xlink" width="18" height="14" viewBox="0 0 18 14">
<path fill="#444444" d="M13.859 6.531l0.141 2.469q0.031 0.539-0.641 1t-1.836 0.73-2.523 0.27-2.523-0.27-1.836-0.73-0.641-1l0.141-2.469 4.484 1.414q0.172 0.055 0.375 0.055t0.375-0.055zM18 4q0 0.18-0.172 0.242l-8.75 2.75q-0.031 0.008-0.078 0.008t-0.078-0.008l-5.094-1.609q-0.336 0.266-0.555 0.871t-0.266 1.395q0.492 0.281 0.492 0.852 0 0.539-0.453 0.836l0.453 3.383q0.016 0.109-0.062 0.195-0.070 0.086-0.187 0.086h-1.5q-0.117 0-0.187-0.086-0.078-0.086-0.062-0.195l0.453-3.383q-0.453-0.297-0.453-0.836 0-0.57 0.508-0.867 0.086-1.617 0.766-2.578l-2.602-0.813q-0.172-0.062-0.172-0.242t0.172-0.242l8.75-2.75q0.031-0.008 0.078-0.008t0.078 0.008l8.75 2.75q0.172 0.062 0.172 0.242z"></path>
</svg>

<svg xmlns="http://www.w3.org/2000/svg" viewBox="0 0 18 14"><path d="M13.86 6.53L14 9q.03.54-.64 1t-1.837.73T9 11t-2.523-.27T4.64 10 4 9l.14-2.47 4.485 1.415Q8.797 8 9 8t.375-.055zM18 4q0 .18-.172.242l-8.75 2.75Q9.048 7 9 7t-.078-.008l-5.094-1.61q-.336.267-.555.872T3.007 7.65q.492.28.492.85 0 .54-.454.837L3.5 12.72q.015.11-.063.195-.07.086-.187.086h-1.5q-.117 0-.187-.085-.078-.086-.062-.195l.454-3.383Q1.5 9.04 1.5 8.5q0-.57.51-.866.085-1.617.765-2.578L.173 4.243Q0 4.18 0 4t.173-.24l8.75-2.75Q8.953 1 9 1t.08.01l8.75 2.75q.17.06.17.24z" /></svg>
